X: 183
T: No_91_To_the_Spirit_Land.krn
N: Derived from No_91_To_the_Spirit_Land.krn
%%abc-version 2.0
%%abcx-abcm2ps-target-version 5.9.1 (29 Sep 2008)
%%abc-creator hum2abc beta
%%abcx-conversion-date 2019/03/15 08:29:13
%%humdrum-veritas 2358435524
%%humdrum-veritas-data 3495315512
%%linebreak <none>
%%barnumbers 0
L: 1/4
M: 5/4
%%staves {1 2}
V: 1 clef=bass
V: 2 clef=bass
K: B
[V:1] C/C/C [I:setbarnb 1]| 
[V:2] z2 | 
[V:1] C3/C/CC/C/C | 
[V:2] G,,/G,,/G,,/G,,/G,,/G,,/ G,,/G,,/G,,/G,,/ | 
[V:1] B,3/B,/B,G,/G,/B, | 
[V:2] z4z | 
[V:1] G,3/G,/G,G,/G,/F, | 
[V:2] z4z | 
[V:1] F,3/F,/F,B,/B,/B, | 
[V:2] z4z | 
[V:1] !tenuto!G,3/G,/G,G,/G,/F, | 
[V:2] z4z | 
[V:1] F,3/F,/F,F,/F,/F, | 
[V:2] z4z | 
[V:1] F,F,CC3//C//B, | 
[V:2] z4z | 
[V:1] G,3/G,/G,C/C/C | 
[V:2] z4z | 
[V:1] B,3/B,/B,G,/G,/B, | 
[V:2] z4z | 
[V:1] =G,3/G,/G,G,/G,/F, | 
[V:2] z4z | 
[V:1] F,3/F,/F,B,/B,/B, | 
[V:2] z4z | 
[V:1] =G,3/G,/G,/G,/ G,/G,/F, | 
[V:2] z4z | 
[V:1] [M:6/4]F,3/F,/F,F,/F,/F,F, :|]  
[V:2] [M:6/4]z6 :|]  



